X: 1
T: Aoife's
M: 6/8
L: 1/8
R: jig
K: Dmaj
FAd GBd|FGA AGE|FAd GBd|AFD EEE|
FAd G2d|FGA AGE|FAd fef|gec d2z|
FAd GBd|FAd EAc|FAd GBd|AFD EEE|
FAd G2d|FGA AGE|FAd fef|gec d2f|
afd bgd|afd AGE|DFA GBd|AFD EEE|
afd b2g|afd AGE|DFA GBd|AGE D2z|
afd bgd|afd AGE|FGA GAB|AFD EEE|
FAd G2d|FGA AGE|FAd fef|gec d2z|
